img/svg-sprite/target-tablet.svg

<svg width="857" height="450" viewBox="0 0 857 450" fill="none" xmlns="http://www.w3.org/2000/svg">
<circle cx="51.1249" cy="51.1553" r="50.6138" stroke="#C96164" stroke-dasharray="5 5"/>
<circle cx="51.1249" cy="398.836" r="50.6138" stroke="#C96164" stroke-dasharray="5 5"/>
<circle cx="201.575" cy="224.996" r="50.6138" stroke="#C96164" stroke-dasharray="5 5"/>
<circle cx="654.544" cy="51.1553" r="50.6138" stroke="#C96164" stroke-dasharray="5 5"/>
<circle cx="804.994" cy="224.996" r="50.6138" stroke="#C96164" stroke-dasharray="5 5"/>
<line x1="82.2589" y1="91.1363" x2="165.767" y2="188.438" stroke="#C96164" stroke-dasharray="5 5"/>
<line y1="-0.5" x2="128.224" y2="-0.5" transform="matrix(0.651272 -0.758845 -0.758845 -0.651272 81.8795 357.922)" stroke="#C96164" stroke-dasharray="5 5"/>
<line x1="689.961" y1="88.1363" x2="773.47" y2="185.438" stroke="#C96164" stroke-dasharray="5 5"/>
<line x1="606.857" y1="68.7163" x2="247.237" y2="201.12" stroke="#C96164" stroke-dasharray="5 5"/>
<line x1="34.4846" y1="34.7041" x2="37.5699" y2="37.7893" stroke="#C96164"/>
<line y1="-0.5" x2="4.36324" y2="-0.5" transform="matrix(-0.707107 0.707107 0.707107 0.707107 66.1186 35.0576)" stroke="#C96164"/>
<line x1="63.0436" y1="63.3623" x2="66.1288" y2="66.4475" stroke="#C96164"/>
<line y1="-0.5" x2="4.36324" y2="-0.5" transform="matrix(-0.707107 0.707107 0.707107 0.707107 37.2163 63.7158)" stroke="#C96164"/>
<line x1="32.1342" y1="50.7925" x2="27.5063" y2="50.7925" stroke="#C96164"/>
<line x1="72.7435" y1="50.7925" x2="68.1156" y2="50.7925" stroke="#C96164"/>
<line x1="50.4768" y1="32.7471" x2="50.4768" y2="28.3852" stroke="#C96164"/>
<path d="M50.9768 63.7154V56.6232M50.9768 56.6232C50.9768 56.6232 51.4426 52.5046 53.2188 50.8781C55.0593 49.1927 59.3841 49.1968 59.3841 49.1968C59.3841 49.1968 59.2973 54.1283 57.1422 55.7826C55.2146 57.2622 50.9768 56.6232 50.9768 56.6232Z" stroke="#002B67"/>
<path d="M50.9768 61.4418V56.571M50.9768 56.571C50.9768 56.571 50.6569 53.7425 49.4371 52.6254C48.173 51.4679 45.2028 51.4707 45.2028 51.4707C45.2028 51.4707 45.2625 54.8576 46.7426 55.9937C48.0664 57.0098 50.9768 56.571 50.9768 56.571Z" stroke="#002B67"/>
<path d="M44.2881 61.9799V66.3201C44.2881 70.0142 47.2827 73.0089 50.9768 73.0089V73.0089C54.6709 73.0089 57.6655 70.0142 57.6655 66.3201V61.98" stroke="#002B67"/>
<circle cx="50.9768" cy="51.0513" r="12.7559" stroke="#002B67"/>
<line x1="57.6655" y1="66.9951" x2="52.0606" y2="66.9951" stroke="#002B67"/>
<line x1="50.1249" y1="66.9951" x2="48.421" y2="66.9951" stroke="#002B67"/>
<path d="M217.481 229.753L208.094 219.982C207.921 219.802 207.646 219.769 207.435 219.903L202.228 223.207V213.901C202.228 213.611 201.993 213.376 201.703 213.376C201.414 213.376 201.179 213.611 201.179 213.901V223.294L196.021 220.588L199.546 208.351H201.179V211.799C201.179 212.089 201.414 212.324 201.703 212.324C201.993 212.324 202.228 212.089 202.228 211.799V207.825C202.228 207.535 201.993 207.299 201.703 207.299H199.151C198.917 207.299 198.712 207.454 198.647 207.679L194.894 220.708C194.825 220.948 194.934 221.204 195.155 221.32L200.615 224.185L198.934 225.157C198.933 225.158 198.932 225.158 198.931 225.159L187.318 231.876C187.067 232.021 186.981 232.343 187.125 232.594L188.401 234.808C188.497 234.974 188.672 235.071 188.856 235.071C188.898 235.071 188.94 235.066 188.982 235.056L197.544 232.932L197.15 235.536C196.186 235.147 195.266 234.632 194.41 233.995C194.178 233.822 193.849 233.87 193.676 234.103C193.503 234.336 193.552 234.666 193.784 234.839C194.781 235.581 195.858 236.171 196.988 236.602L196.157 242.087C196.134 242.238 196.178 242.392 196.278 242.508C196.377 242.624 196.523 242.691 196.676 242.691H206.731C206.884 242.691 207.029 242.624 207.129 242.508C207.228 242.392 207.272 242.238 207.249 242.087L206.989 240.37C206.946 240.083 206.678 239.886 206.392 239.93C206.105 239.973 205.908 240.241 205.952 240.528L206.12 241.64H197.286L197.998 236.942C199.187 237.289 200.423 237.466 201.675 237.466C202.327 237.466 202.983 237.418 203.64 237.321C204.242 237.232 204.832 237.103 205.408 236.937L205.601 238.215C205.641 238.476 205.864 238.662 206.119 238.662C206.146 238.662 206.172 238.66 206.199 238.656C206.485 238.613 206.682 238.345 206.639 238.058L206.418 236.601C208.771 235.711 210.825 234.166 212.361 232.095C212.533 231.862 212.485 231.533 212.252 231.36C212.02 231.187 211.691 231.235 211.518 231.469C210.15 233.313 208.335 234.705 206.257 235.536L204.905 226.621L215.565 232.786C215.645 232.833 215.736 232.857 215.827 232.857C215.872 232.857 215.918 232.851 215.963 232.839C216.097 232.803 216.212 232.715 216.281 232.594L217.557 230.38C217.674 230.177 217.643 229.921 217.481 229.753ZM188.297 232.524L201.215 225.052L201.454 230.88L189.113 233.94L188.297 232.524ZM205.249 235.888C204.677 236.061 204.088 236.193 203.487 236.281C201.673 236.549 199.861 236.411 198.157 235.893L198.647 232.659L202.122 231.797C202.364 231.737 202.53 231.515 202.52 231.265L202.267 225.096L203.742 225.948L205.249 235.888ZM215.635 231.613L202.717 224.142L207.635 221.02L216.451 230.197L215.635 231.613Z" fill="#002B67"/>
<path fill-rule="evenodd" clip-rule="evenodd" d="M208.094 219.983L217.481 229.753C217.643 229.922 217.674 230.178 217.557 230.381L216.281 232.595C216.212 232.715 216.097 232.803 215.963 232.84C215.918 232.852 215.872 232.857 215.827 232.857C215.736 232.857 215.645 232.834 215.565 232.787L203.742 225.949L202.267 225.096L202.52 231.266C202.53 231.515 202.364 231.738 202.122 231.798L198.647 232.66L188.982 235.056C188.94 235.067 188.898 235.072 188.856 235.072C188.672 235.072 188.497 234.974 188.401 234.809L187.125 232.595C186.981 232.343 187.067 232.022 187.318 231.877L198.931 225.159L198.934 225.158L200.615 224.185L195.155 221.32C194.934 221.204 194.825 220.948 194.894 220.709L198.647 207.68C198.712 207.455 198.917 207.3 199.151 207.3H201.703C201.993 207.3 202.228 207.535 202.228 207.826V211.799C202.228 212.089 201.993 212.325 201.703 212.325C201.414 212.325 201.179 212.089 201.179 211.799V208.351H199.546L196.021 220.588L201.179 223.294V213.902C201.179 213.612 201.414 213.376 201.703 213.376C201.993 213.376 202.228 213.612 202.228 213.902V223.208L207.435 219.903C207.646 219.77 207.921 219.803 208.094 219.983ZM201.215 225.053L188.297 232.524L189.113 233.941L201.454 230.88L201.215 225.053ZM202.717 224.142L215.635 231.614L216.451 230.197L207.635 221.021L202.717 224.142Z" fill="#C96164"/>
<path d="M203.438 212.034C205.44 212.319 207.362 213.113 208.996 214.33C212.342 216.82 214.178 220.798 213.906 224.971C213.887 225.261 214.106 225.511 214.396 225.53C214.407 225.53 214.418 225.531 214.43 225.531C214.704 225.531 214.935 225.317 214.953 225.039C215.248 220.509 213.255 216.19 209.622 213.486C207.848 212.165 205.761 211.303 203.586 210.993C203.3 210.952 203.034 211.152 202.993 211.439C202.952 211.727 203.151 211.993 203.438 212.034Z" fill="#002B67"/>
<path d="M189.959 229.671C190.027 229.671 190.096 229.658 190.162 229.629C190.43 229.517 190.554 229.208 190.442 228.941C189.627 227.009 189.319 224.887 189.549 222.803C189.786 220.657 190.595 218.6 191.888 216.857C192.992 215.369 194.376 214.18 196.001 213.323C196.257 213.188 196.356 212.87 196.221 212.614C196.086 212.357 195.769 212.258 195.512 212.393C193.747 213.323 192.244 214.614 191.046 216.23C189.642 218.123 188.764 220.356 188.506 222.687C188.256 224.949 188.591 227.253 189.475 229.35C189.56 229.551 189.754 229.671 189.959 229.671Z" fill="#002B67"/>
<path d="M643.82 43.4834V57.0976C643.82 62.7281 648.384 67.2925 654.015 67.2925V67.2925C659.645 67.2925 664.21 62.7281 664.21 57.0976V52.2088" stroke="#002B67"/>
<path d="M660.683 46.6758V49.3576C660.683 51.3055 662.262 52.8846 664.21 52.8846V52.8846C666.158 52.8846 667.737 51.3055 667.737 49.3576V46.6758" stroke="#002B67"/>
<path d="M638.849 44.4727V45.7242C638.849 48.4696 641.075 50.6952 643.82 50.6952V50.6952C646.565 50.6952 648.791 48.4696 648.791 45.7242V44.4727" stroke="#002B67"/>
<line x1="660.064" y1="46.1758" x2="668.364" y2="46.1758" stroke="#002B67"/>
<line x1="662.493" y1="45.6387" x2="662.493" y2="43.551" stroke="#002B67"/>
<line x1="666.297" y1="45.6387" x2="666.297" y2="43.551" stroke="#002B67"/>
<path d="M643.94 43.8869C643.897 43.9277 643.857 43.9658 643.82 44.001C643.782 43.9658 643.742 43.9277 643.7 43.8869C643.429 43.6258 643.069 43.2569 642.711 42.8243C642.351 42.3904 642.001 41.9022 641.743 41.403C641.483 40.9 641.332 40.4166 641.332 39.9834C641.332 39.5503 641.483 39.0669 641.743 38.5639C642.001 38.0646 642.351 37.5765 642.711 37.1425C643.069 36.71 643.429 36.341 643.7 36.0799C643.742 36.0392 643.782 36.0011 643.82 35.9659C643.857 36.0011 643.897 36.0392 643.94 36.0799C644.21 36.341 644.57 36.71 644.929 37.1425C645.288 37.5765 645.638 38.0646 645.896 38.5639C646.156 39.0669 646.307 39.5503 646.307 39.9834C646.307 40.4166 646.156 40.9 645.896 41.403C645.638 41.9022 645.288 42.3904 644.929 42.8243C644.57 43.2569 644.21 43.6258 643.94 43.8869Z" stroke="#C96164"/>
<path d="M648.787 44.0326C648.728 44.0315 648.673 44.0302 648.621 44.0286C648.62 43.9772 648.618 43.922 648.617 43.8633C648.611 43.4872 648.617 42.9719 648.669 42.4126C648.722 41.8514 648.82 41.2588 648.99 40.7232C649.162 40.1836 649.397 39.7351 649.703 39.4289C650.01 39.1226 650.458 38.8874 650.998 38.7156C651.533 38.5452 652.126 38.4475 652.687 38.3949C653.246 38.3425 653.762 38.3361 654.138 38.3429C654.196 38.344 654.252 38.3454 654.303 38.3469C654.305 38.3983 654.306 38.4535 654.307 38.5122C654.314 38.8883 654.307 39.4036 654.255 39.9629C654.202 40.5241 654.105 41.1168 653.934 41.6523C653.763 42.1919 653.527 42.6404 653.221 42.9467C652.915 43.2529 652.466 43.4881 651.927 43.6599C651.391 43.8303 650.799 43.928 650.237 43.9806C649.678 44.033 649.163 44.0394 648.787 44.0326Z" stroke="#C96164"/>
<path d="M638.829 44.0326C638.888 44.0315 638.943 44.0302 638.994 44.0286C638.996 43.9772 638.997 43.922 638.998 43.8633C639.005 43.4872 638.999 42.9719 638.946 42.4126C638.894 41.8514 638.796 41.2588 638.626 40.7232C638.454 40.1836 638.219 39.7351 637.912 39.4289C637.606 39.1226 637.158 38.8874 636.618 38.7156C636.083 38.5452 635.49 38.4475 634.929 38.3949C634.369 38.3425 633.854 38.3361 633.478 38.3429C633.419 38.344 633.364 38.3454 633.313 38.3469C633.311 38.3983 633.31 38.4535 633.309 38.5122C633.302 38.8883 633.308 39.4036 633.361 39.9629C633.413 40.5241 633.511 41.1168 633.681 41.6523C633.853 42.1919 634.088 42.6404 634.395 42.9467C634.701 43.2529 635.149 43.4881 635.689 43.6599C636.225 43.8303 636.817 43.928 637.378 43.9806C637.938 44.033 638.453 44.0394 638.829 44.0326Z" stroke="#C96164"/>
<path d="M815.369 215.964V210.487M815.369 210.487C815.369 210.487 815.729 207.305 817.101 206.049C818.522 204.747 821.863 204.75 821.863 204.75C821.863 204.75 821.796 208.56 820.131 209.837C818.642 210.98 815.369 210.487 815.369 210.487Z" stroke="#C96164"/>
<path d="M815.369 214.208V210.446M815.369 210.446C815.369 210.446 815.122 208.262 814.18 207.399C813.203 206.505 810.909 206.507 810.909 206.507C810.909 206.507 810.955 209.123 812.098 210C813.121 210.785 815.369 210.446 815.369 210.446Z" stroke="#C96164"/>
<path d="M787.677 237.253V222.809H790.468V217.556L798.018 213.617V222.809H801.465V217.556L808.687 213.617V222.809H811.97V217.556L819.521 213.617V222.809H822.311V237.253H787.677Z" stroke="#002B67"/>
<circle cx="794.661" cy="230.448" r="2.05121" stroke="#C96164"/>
<circle cx="804.994" cy="230.448" r="2.05121" stroke="#C96164"/>
<circle cx="815.328" cy="230.448" r="2.05121" stroke="#C96164"/>
<path d="M60.3258 388.786C59.4918 388.183 58.5238 387.865 57.5262 387.865C55.9619 387.865 54.5918 388.814 53.8502 390.226C53.1087 388.814 51.7386 387.865 50.1743 387.865C48.4327 387.865 46.8179 388.839 45.8548 390.471C45.6936 390.744 45.7907 391.092 46.0716 391.249C46.3528 391.406 46.7113 391.312 46.8725 391.038C47.6238 389.765 48.8582 389.005 50.1744 389.005C51.8778 389.005 53.2636 390.637 53.2636 392.643C53.2636 392.958 53.5262 393.214 53.8503 393.214C54.1744 393.214 54.437 392.958 54.437 392.643C54.437 390.637 55.8229 389.005 57.5263 389.005C58.2698 389.005 58.9958 389.246 59.6259 389.701C59.8859 389.889 60.2534 389.837 60.4467 389.584C60.64 389.331 60.5858 388.974 60.3258 388.786Z" fill="#E15C66"/>
<path d="M61.3908 406.825C61.2661 406.534 60.9226 406.397 60.6235 406.518L55.4956 408.598C54.4631 409.017 53.309 409.06 52.2452 408.719L40.2174 404.866C39.4601 404.623 38.6406 404.661 37.9108 404.973L37.4335 405.176C37.1366 405.302 37.0015 405.638 37.1314 405.927C37.2614 406.216 37.6073 406.347 37.9041 406.221L38.3819 406.017C38.8464 405.819 39.3678 405.795 39.8499 405.95L51.878 409.803C52.4717 409.993 53.0878 410.088 53.703 410.088C54.4678 410.088 55.2311 409.941 55.9476 409.65L61.0753 407.571C61.3743 407.449 61.5156 407.116 61.3908 406.825Z" fill="#002B67"/>
<path d="M69.0094 401.418C69.0088 401.417 69.0059 401.411 69.0053 401.409L69.0009 401.399C68.4729 400.209 67.1428 399.566 65.8683 399.833C66.0298 399.325 66.0037 398.784 65.7893 398.288C65.5472 397.727 65.0948 397.293 64.5155 397.064C64.5142 397.064 64.5001 397.058 64.4988 397.058C63.3652 396.62 62.0631 397.114 61.5344 398.183L59.6864 401.914L56.6905 402.933C56.1314 403.123 55.516 403.123 54.9583 402.933L54.8725 402.904C58.6451 400.86 62.7086 397.383 62.7086 393.696C62.7086 392.41 62.3456 391.193 61.6588 390.175C61.4812 389.912 61.1172 389.838 60.8464 390.011C60.5755 390.184 60.4999 390.537 60.6776 390.801C61.2387 391.632 61.5352 392.633 61.5352 393.696C61.5352 396.824 57.7189 400.16 53.8501 402.146C52.8125 401.613 51.7816 400.981 50.8522 400.307C50.0593 399.733 49.3418 399.129 48.724 398.518L54.7011 400.505C55.8842 400.899 57.2025 400.335 57.7024 399.221C57.9696 398.628 57.9711 397.945 57.7064 397.348C57.4456 396.76 56.9639 396.311 56.3512 396.084L45.7435 392.128C45.6671 392.099 45.5837 392.069 45.4812 392.035C43.4001 391.34 41.0274 391.657 39.1346 392.883L33.4912 396.538C33.2215 396.713 33.1485 397.067 33.3282 397.329C33.5078 397.591 33.8721 397.662 34.1417 397.487L39.7851 393.832C41.3755 392.802 43.3624 392.533 45.1007 393.114C45.1854 393.142 45.2521 393.166 45.3167 393.191L55.9318 397.149C56.247 397.266 56.4946 397.497 56.6288 397.8C56.7673 398.112 56.7669 398.454 56.6273 398.764C56.3697 399.338 55.6906 399.629 55.0811 399.426L48.3472 397.187C47.8091 397.008 47.2251 397.03 46.7026 397.249C46.0532 397.521 45.5774 398.058 45.3971 398.721C45.0938 399.835 45.7335 401.006 46.8536 401.388L54.571 404.01C55.3782 404.284 56.2681 404.284 57.0773 404.01L65.9253 401C66.715 400.731 67.5924 401.105 67.9259 401.856L67.9286 401.863C68.0955 402.246 68.0981 402.67 67.9361 403.055C67.7739 403.442 67.4662 403.743 67.07 403.904L62.3453 405.82C62.0463 405.941 61.905 406.275 62.0297 406.566C62.1237 406.785 62.3417 406.917 62.5714 406.917C62.6467 406.917 62.7232 406.902 62.7971 406.873L67.5218 404.957C68.2083 404.678 68.7411 404.156 69.0224 403.487C69.3032 402.818 69.2987 402.084 69.0094 401.418ZM47.241 400.311C46.6954 400.125 46.3836 399.555 46.5313 399.013C46.604 398.746 46.7765 398.522 47.013 398.377C47.8379 399.355 48.8913 400.31 50.1511 401.222C50.2207 401.272 50.2923 401.322 50.363 401.372L47.241 400.311ZM64.7108 399.596L64.4102 400.307L61.2524 401.381L62.5916 398.678C62.8546 398.146 63.502 397.9 64.0654 398.118C64.0662 398.118 64.0737 398.121 64.0744 398.121C64.3624 398.235 64.5871 398.451 64.7075 398.729C64.828 399.008 64.8292 399.316 64.7108 399.596Z" fill="#002B67"/>
<path fill-rule="evenodd" clip-rule="evenodd" d="M47.013 398.377C47.8379 399.355 48.8913 400.31 50.151 401.222C50.1754 401.239 51.1396 401.764 52.0773 402.274C52.9637 402.756 53.8266 403.225 53.85 403.242L54.8725 402.904C58.6451 400.86 62.7086 397.383 62.7086 393.696C62.7086 392.41 62.3456 391.193 61.6588 390.175C61.4811 389.912 61.1172 389.838 60.8464 390.011C60.5754 390.184 60.4999 390.537 60.6776 390.801C61.2387 391.632 61.5352 392.633 61.5352 393.696C61.5352 396.824 57.7189 400.16 53.85 402.146C52.8124 401.613 51.7816 400.981 50.8522 400.307C50.0593 399.733 49.3418 399.129 48.724 398.518C48.1859 398.339 47.5355 398.158 47.013 398.377Z" fill="#C96164"/>
</svg>

<svg width="857" height="450" fill="none" xmlns="http://www.w3.org/2000/svg"><circle cx="51.125" cy="51.155" r="50.614" stroke="#C96164" stroke-dasharray="5 5"/><circle cx="51.125" cy="398.836" r="50.614" stroke="#C96164" stroke-dasharray="5 5"/><circle cx="201.575" cy="224.996" r="50.614" stroke="#C96164" stroke-dasharray="5 5"/><circle cx="654.544" cy="51.155" r="50.614" stroke="#C96164" stroke-dasharray="5 5"/><circle cx="804.994" cy="224.996" r="50.614" stroke="#C96164" stroke-dasharray="5 5"/><path stroke="#C96164" stroke-dasharray="5 5" d="M82.259 91.136l83.508 97.302m-83.508 169.81l83.509-97.303M689.961 88.136l83.509 97.302M606.857 68.716L247.237 201.12"/><path stroke="#C96164" d="M34.485 34.704l3.085 3.085m28.195-3.085l-3.085 3.085m.364 25.573l3.085 3.086m-29.266-3.086l-3.085 3.085m-1.644-15.655h-4.628m45.237 0h-4.627M50.477 32.747v-4.362"/><path d="M50.977 63.715v-7.092m0 0s.466-4.118 2.242-5.745c1.84-1.685 6.165-1.681 6.165-1.681s-.087 4.931-2.242 6.586c-1.927 1.48-6.165.84-6.165.84zm0 4.819V56.57m0 0s-.32-2.828-1.54-3.946c-1.264-1.157-4.234-1.154-4.234-1.154s.06 3.387 1.54 4.523c1.323 1.016 4.234.577 4.234.577zm-6.689 5.41v4.34a6.689 6.689 0 0 0 6.689 6.689v0a6.689 6.689 0 0 0 6.689-6.689v-4.34" stroke="#002B67"/><circle cx="50.977" cy="51.051" r="12.756" stroke="#002B67"/><path stroke="#002B67" d="M57.666 66.995h-5.605m-1.936 0h-1.704"/><path d="M217.481 229.753l-9.387-9.771a.524.524 0 0 0-.659-.079l-5.207 3.304v-9.306a.525.525 0 1 0-1.049 0v9.393l-5.158-2.706 3.525-12.237h1.633v3.448a.525.525 0 1 0 1.049 0v-3.974a.526.526 0 0 0-.525-.526h-2.552a.525.525 0 0 0-.504.38l-3.753 13.029c-.069.24.04.496.261.612l5.46 2.865-1.681.972-.003.002-11.613 6.717a.527.527 0 0 0-.193.718l1.276 2.214a.526.526 0 0 0 .581.248l8.562-2.124-.394 2.604a12.291 12.291 0 0 1-2.74-1.541.524.524 0 0 0-.734.108.527.527 0 0 0 .108.736 13.307 13.307 0 0 0 3.204 1.763l-.831 5.485a.524.524 0 0 0 .519.604h10.055a.525.525 0 0 0 .518-.604l-.26-1.717a.523.523 0 1 0-1.037.158l.168 1.112h-8.834l.712-4.698c1.189.347 2.425.524 3.677.524a13.446 13.446 0 0 0 3.733-.529l.193 1.278a.525.525 0 1 0 1.038-.157l-.221-1.457a13.192 13.192 0 0 0 5.943-4.506.526.526 0 0 0-.109-.735.523.523 0 0 0-.734.109 12.16 12.16 0 0 1-5.261 4.067l-1.352-8.915 10.66 6.165a.518.518 0 0 0 .398.053.522.522 0 0 0 .318-.245l1.276-2.214a.526.526 0 0 0-.076-.627zm-29.184 2.771l12.918-7.472.239 5.828-12.341 3.06-.816-1.416zm16.952 3.364c-.572.173-1.161.305-1.762.393a12.17 12.17 0 0 1-5.33-.388l.49-3.234 3.475-.862a.525.525 0 0 0 .398-.532l-.253-6.169 1.475.852 1.507 9.94zm10.386-4.275l-12.918-7.471 4.918-3.122 8.816 9.177-.816 1.416z" fill="#002B67"/><path fill-rule="evenodd" clip-rule="evenodd" d="M208.094 219.983l9.387 9.77a.527.527 0 0 1 .076.628l-1.276 2.214a.53.53 0 0 1-.454.262.517.517 0 0 1-.262-.07l-11.823-6.838-1.475-.853.253 6.17a.526.526 0 0 1-.398.532l-3.475.862-9.665 2.396a.528.528 0 0 1-.581-.247l-1.276-2.214a.527.527 0 0 1 .193-.718l11.613-6.718.003-.001 1.681-.973-5.46-2.865a.526.526 0 0 1-.261-.611l3.753-13.029a.525.525 0 0 1 .504-.38h2.552c.29 0 .525.235.525.526v3.973a.526.526 0 0 1-1.049 0v-3.448h-1.633l-3.525 12.237 5.158 2.706v-9.392a.526.526 0 1 1 1.049 0v9.306l5.207-3.305a.525.525 0 0 1 .659.08zm-6.879 5.07l-12.918 7.471.816 1.417 12.341-3.061-.239-5.827zm1.502-.911l12.918 7.472.816-1.417-8.816-9.176-4.918 3.121z" fill="#C96164"/><path d="M203.438 212.034a12.22 12.22 0 0 1 5.558 2.296 12.221 12.221 0 0 1 4.91 10.641c-.019.29.2.54.49.559l.034.001a.526.526 0 0 0 .523-.492 13.27 13.27 0 0 0-5.331-11.553 13.276 13.276 0 0 0-6.036-2.493.525.525 0 0 0-.148 1.041zm-13.479 17.637a.525.525 0 0 0 .483-.73 12.342 12.342 0 0 1-.893-6.138 12.253 12.253 0 0 1 2.339-5.946 12.134 12.134 0 0 1 4.113-3.534.526.526 0 0 0-.489-.93 13.153 13.153 0 0 0-4.466 3.837 13.311 13.311 0 0 0-1.571 13.12.525.525 0 0 0 .484.321z" fill="#002B67"/><path d="M643.82 43.483v13.615c0 5.63 4.564 10.195 10.195 10.195v0c5.63 0 10.195-4.565 10.195-10.195v-4.89" stroke="#002B67"/><path d="M660.683 46.676v2.682a3.527 3.527 0 0 0 3.527 3.527v0a3.527 3.527 0 0 0 3.527-3.527v-2.682m-28.888-2.203v1.251a4.971 4.971 0 0 0 4.971 4.971v0a4.971 4.971 0 0 0 4.971-4.97v-1.252m11.273 1.703h8.3m-5.871-.537v-2.088m3.804 2.088v-2.088" stroke="#002B67"/><path d="M643.94 43.887l-.12.114a13.103 13.103 0 0 1-1.109-1.177 8.165 8.165 0 0 1-.968-1.421c-.26-.503-.411-.986-.411-1.42 0-.433.151-.916.411-1.42.258-.498.608-.986.968-1.42a13.12 13.12 0 0 1 1.109-1.177l.12.114c.27.261.63.63.989 1.063.359.434.709.922.967 1.42.26.504.411.987.411 1.42 0 .434-.151.917-.411 1.42-.258.5-.608.987-.967 1.421-.359.433-.719.802-.989 1.063zm4.847.146a13.735 13.735 0 0 1-.166-.004l-.004-.166c-.006-.376 0-.891.052-1.45a8.256 8.256 0 0 1 .321-1.69c.172-.54.407-.988.713-1.294.307-.306.755-.542 1.295-.713a8.193 8.193 0 0 1 1.689-.321 13.245 13.245 0 0 1 1.616-.048l.004.165c.007.376 0 .892-.052 1.45a8.188 8.188 0 0 1-.321 1.69c-.171.54-.407.988-.713 1.295-.306.306-.755.541-1.294.713a8.202 8.202 0 0 1-1.69.32c-.559.053-1.074.06-1.45.053zm-9.958 0l.165-.004a13.044 13.044 0 0 0-.048-1.616 8.187 8.187 0 0 0-.32-1.69c-.172-.54-.407-.988-.714-1.294-.306-.306-.754-.542-1.294-.713a8.193 8.193 0 0 0-1.689-.321 13.253 13.253 0 0 0-1.616-.048 13.044 13.044 0 0 0 .048 1.616 8.2 8.2 0 0 0 .32 1.69c.172.539.407.987.714 1.294.306.306.754.541 1.294.713.536.17 1.128.268 1.689.32.56.053 1.075.06 1.451.053zm176.54 171.931v-5.477m0 0s.36-3.182 1.732-4.438c1.421-1.302 4.762-1.299 4.762-1.299s-.067 3.81-1.732 5.087c-1.489 1.143-4.762.65-4.762.65zm0 3.721v-3.762m0 0s-.247-2.184-1.189-3.047c-.977-.894-3.271-.892-3.271-.892s.046 2.616 1.189 3.493c1.023.785 3.271.446 3.271.446z" stroke="#C96164"/><path d="M787.677 237.253v-14.444h2.791v-5.253l7.55-3.939v9.192h3.447v-5.253l7.222-3.939v9.192h3.283v-5.253l7.551-3.939v9.192h2.79v14.444h-34.634z" stroke="#002B67"/><circle cx="794.661" cy="230.448" r="2.051" stroke="#C96164"/><circle cx="804.994" cy="230.448" r="2.051" stroke="#C96164"/><circle cx="815.328" cy="230.448" r="2.051" stroke="#C96164"/><path d="M60.326 388.786a4.757 4.757 0 0 0-2.8-.921c-1.564 0-2.934.949-3.676 2.361-.741-1.412-2.111-2.361-3.676-2.361-1.741 0-3.356.974-4.32 2.606a.561.561 0 0 0 .218.778c.28.157.64.063.8-.211.752-1.273 1.986-2.033 3.302-2.033 1.704 0 3.09 1.632 3.09 3.638a.58.58 0 0 0 .586.571.58.58 0 0 0 .587-.571c0-2.006 1.386-3.638 3.09-3.638.743 0 1.469.241 2.099.696.26.188.627.136.82-.117a.56.56 0 0 0-.12-.798z" fill="#E15C66"/><path d="M61.39 406.825a.593.593 0 0 0-.767-.307l-5.127 2.08a4.779 4.779 0 0 1-3.25.121l-12.029-3.853a3.303 3.303 0 0 0-2.306.107l-.477.203a.564.564 0 0 0-.303.751c.13.289.476.42.773.294l.478-.204a2.103 2.103 0 0 1 1.468-.067l12.028 3.853a5.989 5.989 0 0 0 4.07-.153l5.127-2.079a.565.565 0 0 0 .316-.746z" fill="#002B67"/><path d="M69.01 401.418a.078.078 0 0 1-.005-.009l-.004-.01c-.528-1.19-1.858-1.833-3.133-1.566a2.192 2.192 0 0 0-.079-1.545 2.288 2.288 0 0 0-1.273-1.224l-.017-.006c-1.134-.438-2.436.056-2.965 1.125l-1.848 3.731-2.995 1.019c-.56.19-1.175.19-1.733 0l-.085-.029c3.772-2.044 7.836-5.521 7.836-9.208 0-1.286-.363-2.503-1.05-3.521a.597.597 0 0 0-.813-.164.561.561 0 0 0-.168.79c.56.831.857 1.832.857 2.895 0 3.128-3.816 6.464-7.685 8.45a23.358 23.358 0 0 1-2.998-1.839 18.285 18.285 0 0 1-2.128-1.789l5.977 1.987c1.183.394 2.502-.17 3.001-1.284a2.298 2.298 0 0 0 .004-1.873 2.366 2.366 0 0 0-1.355-1.264l-10.608-3.956a6.408 6.408 0 0 0-.262-.093c-2.08-.695-4.454-.378-6.346.848l-5.644 3.655a.56.56 0 0 0-.163.791c.18.262.544.333.814.158l5.643-3.655c1.59-1.03 3.577-1.299 5.316-.718.084.028.151.052.216.077l10.615 3.958c.315.117.563.348.697.651.138.312.138.654-.002.964-.257.574-.936.865-1.546.662l-6.734-2.239a2.341 2.341 0 0 0-1.644.062 2.228 2.228 0 0 0-1.306 1.472c-.303 1.114.337 2.285 1.457 2.667l7.717 2.622a3.924 3.924 0 0 0 2.506 0l8.848-3.01c.79-.269 1.667.105 2 .856l.004.007c.166.383.17.807.007 1.192-.162.387-.47.688-.866.849l-4.725 1.916a.565.565 0 0 0-.315.746.587.587 0 0 0 .541.351.619.619 0 0 0 .226-.044l4.725-1.916a2.722 2.722 0 0 0 1.5-1.47 2.61 2.61 0 0 0-.013-2.069zm-21.769-1.107a1.082 1.082 0 0 1-.71-1.298c.073-.267.245-.491.482-.636.825.978 1.878 1.933 3.138 2.845l.212.15-3.122-1.061zm17.47-.715l-.3.711-3.159 1.074 1.34-2.703c.263-.532.91-.778 1.473-.56l.01.003c.287.114.512.33.632.608.121.279.122.587.004.867z" fill="#002B67"/><path fill-rule="evenodd" clip-rule="evenodd" d="M47.013 398.377c.825.978 1.878 1.933 3.138 2.845.024.017.989.542 1.926 1.052.887.482 1.75.951 1.773.968l1.023-.338c3.772-2.044 7.836-5.521 7.836-9.208 0-1.286-.363-2.503-1.05-3.521a.597.597 0 0 0-.813-.164.561.561 0 0 0-.168.79c.56.831.857 1.832.857 2.895 0 3.128-3.816 6.464-7.685 8.45a23.357 23.357 0 0 1-2.998-1.839 18.285 18.285 0 0 1-2.128-1.789c-.538-.179-1.188-.36-1.711-.141z" fill="#C96164"/></svg>
